X:1
T:Bryniau Cassia, 76.76 D
T:Bryniau Cassia, 76.76 D
T:Old Welsh Tune
T:Public Domain Courtesy of the Cyber Hymnal™
C:Old Welsh Tune
Z:Public Domain
Z:Courtesy of the Cyber Hymnal™
%%score ( 1 2 ) ( 3 4 )
L:1/8
Q:1/4=110
M:4/4
K:Bb
V:1 treble 
V:2 treble 
V:3 bass 
V:4 bass 
V:1
 D4 | G2 G2 G2 G2 | D2 G4 [^FA]2 | G2 G2 [GB]2 [GB]2 | [^FA]4 (B3 A) | G2 [FG]2 [EG]2 [DG]2 | %6
 [CD]2 [B,G]4 [EA]2 | [DG]2 [DG]2 [GB]2 [^FA]2 | G4 ([DB]3 [Fc]) | [Fd]2 [Fd]2 [Fd]2 [Bd]2 | %10
 [Ac]2 [Ac]4 ([GB][Fc]) | [Fd]2 [GB]2 [DA]2 G2 | [^FA]4 G3 [FA] | [GB]2 [DB]2 [FA]2 [FB]2 | %14
 [Fc]2 [Fd]4 [Ec]2 | [DB]2 B2 [GA]2 [^FA]2 | G4 d4 | [Ac]4 (B3 c) | [Gd]2 [GB]2 [EA]2 G2 | %19
 [^FA]4 (G3 [FA]) | [GB]2 [GB]2 [^FA]2 [GB]2 | c2 [=Fd]4 [^Fc]2 | [GB]2 [GB]2 [GA]2 [^FA]2 | %23
 [DG]4 |] %24
V:2
 D4 | G2 G2 G2 G2 | D2 G4 x2 | G2 G2 x4 | x4 ^F4 | G2 x6 | x8 | x8 | G4 x4 | x8 | x8 | x6 G2 | %12
 x4 G3 x | x8 | x8 | x2 (DG) x4 | G4 (F2 B2) | x4 G4 | x6 G2 | x4 G3 x | x8 | (G^F) x6 | x8 | x4 |] %24
V:3
 D,4 | G,2 G,2 G,2 G,2 | D,2 G,4 [D,D]2 | [G,B,]2 [B,D]2 [G,D]2 [G,D]2 | [D,D]4 (D3 C) | %5
 [E,B,]2 [D,=B,]2 [C,C]2 [=B,,G,]2 | [A,,^F,]2 [G,,G,]4 [C,G,]2 | [D,B,]2 [D,B,]2 [D,D]2 [D,C]2 | %8
 [G,,B,]4 ([G,B,]3 [F,A,]) | B,2 B,2 [B,D]2 [B,F]2 | [F,F]2 [F,F]4 ([G,D][A,C]) | %11
 B,2 [F,D]2 [E,D]2 [E,^C]2 | [D,D]4 ([B,D]3 [A,C]) | [G,B,]2 [F,D]2 [E,C]2 [D,B,]2 | %14
 [C,A,]2 [B,,B,]4 [C,G,]2 | [C,G,]2 (G,D) [C,E]2 (DC) | [G,B,]4 (B,2 F2) | [F,F]4 ([G,D]3 [E,C]) | %18
 [D,B,]2 G,2 [C,C]2 [E,^C]2 | [D,D]4 D4 | [G,D]2 D2 [CE]2 [B,D]2 | [A,E]2 [B,D]4 [A,D]2 | %22
 D2 E2 [C,E]2 (DC) | [G,,B,]4 |] %24
V:4
 D,4 | G,2 G,2 G,2 G,2 | D,2 G,4 x2 | x8 | x4 D,4 | x8 | x8 | x8 | x8 | B,2 B,2 x4 | x8 | B,2 x6 | %12
 x8 | x8 | x8 | x2 G,2 x D,2 x | x4 B,4 | x8 | x2 (E,D,) x4 | x4 (B,3 A,) | x2 D2 x4 | x8 | %22
 (G,F,) (E,D,) x D,2 x | x4 |] %24

